X: 1
T:O'Neill's March
M:C|
L:1/8
Q:80
C:
S:Polka
K:HP
|: {g}Bg{a}fa|
{g}eg{f}g/2f/2e/2d/2|
{g}Bg{a}fa|  !
{g}eg{f}g/2f/2e/2d/2:|
{g}e{A}e/2{g}e/2{g}f/2e/2d/2B/2|
{g}e{A}e/2{g}e/2{g}f/2e/2d/2B/2|  !
{g}e{A}e/2{g}e/2{g}f/2e/2d/2B/2|
{g}e{A}e/2{g}e/2{g}f/2e/2d/2B/2| |:
{g}A3/2B/2{d}G3/2B/2|  !
{g}Ae{A}e/2d/2B/2G/2|
{g}A3/2B/2{d}G3/2B/2|
{g}Ae{A}e/2d/2B/2G/2:|  !
